X:1
T:Se hur ängarna klädas
T:Se hur ängarna klädas i svallande flor
T:Elfrida Andrée (1841-1923)
T:Viktor Rydberg
T:ur Drömlif (II)
C:Elfrida Andrée
Z:Viktor Rydberg
%%score [ 1 2 ( 3 4 ) ( 5 6 ) ]
L:1/8
Q:1/4=100
M:3/4
K:Eb
V:1 treble nm="Soprano"
V:2 treble nm="Alto"
V:3 treble-8 nm="Tenor"
V:4 treble-8 
V:5 bass nm="Bass"
V:6 bass 
V:1
"^Måttligt" z6 | z6 | z6 | z6 | z6 | z6 | z6 | z6 |!p! B4 =B2 | c2 d2 c2 |!<(! B6!<)! | B4 e2 | %12
w: ||||||||Hur de|silv- ra- de|dim-|mor- na|
 (=e4 f2) | g4 f2 |!>(! e6- | e2!>)! z2!pp! G G | G2 z2 G G | G4 G G |!>(! c2 c2 c2!>)! | G4 G G | %20
w: skri- *|da för-|bi!|_ O, så|lyss och för-|nim då den|vis- kan- de|kor u- tav|
 G2 G2 F2 | =E2 c2 z _E | A2 B2 z A | G2 z2 G G | G4 G G | G2 G3 G | !>!c2 !>!c2 !>!c2 | G4 G G | %28
w: ti- der- nas|an- dar, som|svä- var där-|i! Och du|kän- ner en|var- sel i|bä- van- de|bröst av de|
"^cresc." G2 G2 G2 | =E2 c2 _E2 | A2 B3 A |"^rit." A6 |"^a tempo" G4 G2 | A2 B2 A2 | (G4 c2) | %35
w: djup- sta, som|sek- ler- nas|hjär- ta för-|nam,|vad av|ve och av|ma- *|
 B4 G2 | B6 | B4 B2 |!>(! B6- | B4!>)! B B | B6 | B4 =B2 | c6 | c4 _c2 |!<(! B6!<)! | B4 B2 | %46
w: nan- de|all-|var och|tröst,|_ som har|sprun-|git ur|si-|a- re-|har-|por- na|
!>(! B6- | B2!>)! z2 z2 |] %48
w: fram.|_|
V:2
!p! B,4 =B,2 | C2 D2 C2 |!<(! (_B,4 A2)!<)! | G4 E2 |!<(! (=E4 F2)!<)! |!>(! G4 F2!>)! | B,6- | %7
w: Se hur|än- gar- na|klä- *|das i|sval- *|lan- de|flor,|
!<(! B,6!<)! | E4 E2 | E2 E2 E2 |!<(! (B,4 A2)!<)! | G4 G2 | A6 | A4 A2 |!>(! G6- | %15
w: _|Hur de|silv- ra- de|dim- *|mor- na|skri-|da för-|bi!|
 G2!>)! z2!pp! G G | G2 z2 E C | D4 G G |!>(! A2 A2 A2!>)! | G4 G G | C2 C2 C2 | C2 =E2 z C | %22
w: _ O, så|lyss och för-|nim då den|vis- kan- de|kor u- tav|ti- der- nas|an- dar, som|
 _E2 E2 z E | D2 z2 G G | G4 E C | D2 D3 G | !>!A2 !>!A2 !>!A2 | G4 G G |"^cresc." C2 C2 C2 | %29
w: svä- var där-|i! Och du|kän- ner en|var- sel i|bä- van- de|bröst av de|djup- sta, som|
 C2 =E2 C2 | _E2 E3 E | (E4 D2) | B,4 B,2 | _C2 _D2 C2 | (B,4 A2) | G4 E2 | (=E4 F2) | G4 G2 | %38
w: sek- ler- nas|hjär- ta för-|nam, _|vad av|ve och av|ma- *|nan- de|all- *|var och|
!>(! (E4 D2 | C2 B,2)!>)! A A | G6 | G4 G2 | (A4 =E2) | F4 F2 |!<(! B6!<)! | D4 D2 |!>(! E6- | %47
w: tröst, _|_ _ som har|sprun-|git ur|si- *|a- re-|har-|por- na|fram.|
 E2!>)! z2 z2 |] %48
w: _|
V:3
!p! G4 G2 | A2 B2 A2 |!<(! (G4 c2)!<)! | B4 G2 |!<(! (G4 A2)!<)! |!>(! B4 A2!>)! | (G6 | %7
w: Se hur|än- gar- na|klä- *|das i|sval- *|lan- de|flor,|
!<(! F2 G2 A2)!<)! | B4 G2 | A2 B2 A2 |!<(! (G2 B2 d2)!<)! | e4 e2 | d6 | c4 d2 |!>(! B6- | %15
w: _ _ _|Hur de|silv- ra- de|dim- * *|mor- na|skri-|da för-|bi!|
 B2!>)! z2!pp! G G | G2 z2 c =A | =B4 G G |!>(! d2 d2 d2!>)! | G4 G G | A2 A2 A2 | G2 G2 z G | %22
w: _ O, så|lyss och för-|nim då den|vis- kan- de|kor u- tav|ti- der- nas|an- dar, som|
 c2 c2 z c | =B2 z2 G G | G4 c =A | =B2 B3 G | !>!d2 !>!d2 !>!d2 | G4 G G |"^cresc." A2 A2 A2 | %29
w: svä- var där-|i! Och du|kän- ner en|var- sel i|bä- van- de|bröst av de|djup- sta, som|
 G2 G2 G2 | c2 c3 c | (c2 _c2 B2) | B4 B2 | _c2 _d2 c2 | (B4 =c=d) | e4 B2 | (G4 A2) | B4 B2 | %38
w: sek- ler- nas|hjär- ta för-|nam, _ _|vad av|ve och av|ma- * *|nan- de|all- *|var och|
!>(! (B4 A2 | G2 F2)!>)! d d | (B4 e2) | _d4 d2 | (c4 g2) | f4 e2 |!<(! (d2 =e2 f2)!<)! | g4 f2 | %46
w: tröst, _|_ _ som har|sprun- *|git ur|si- *|a- re-|har- * *|por- na|
!>(! e6- | e2!>)! z2 z2 |] %48
w: fram.|_|
V:4
 x6 | x6 | x6 | x6 | x6 | x6 | x6 | x6 | x6 | x6 | x6 | x6 | x6 | x6 | x6 | x6 | x6 | x6 | x6 | %19
 x6 | x6 | x6 | x6 | x6 | x6 | x6 | x6 | x6 | x6 | x6 | x6 | x6 | x6 | x6 | x6 | x6 | x6 | x6 | %38
 x6 | x6 | x6 | x6 | x6 | c4 A2 | B6 | B4 A2 | G6- | G2 x4 |] %48
V:5
!p! E,4 E,2 | E,2 E,2 E,2 |!<(! E,6!<)! | E,4 E,2 |!<(! B,,6!<)! |!>(! B,,4 B,,2!>)! | (E,6 | %7
w: Se hur|än- gar- na|klä-|das i|sval-|lan- de|flor,|
!<(! B,,2 E,2 F,2)!<)! | G,4 G,2 | A,2 B,2 A,2 |!<(! (G,4 F,2)!<)! | E,4 E,2 | B,6 | B,4 B,2 | %14
w: _ _ _|Hur de|silv- ra- de|dim- *|mor- na|skri-|da för-|
!>(! E,6- | E,2!>)! z2!pp! G, G, | G,2 z2 G, G, | G,4 G, G, |!>(! F,2 F,2 F,2!>)! | G,4 G, G, | %20
w: bi!|_ O, så|lyss och för-|nim då den|vis- kan- de|kor u- tav|
 G,,2 G,,2 G,,2 | G,,2 G,,2 z G, | F,2 F,2 z F, | G,2 z2 G, G, | G,4 G, G, | G,2 G,3 G, | %26
w: ti- der- nas|an- dar, som|svä- var där-|i! Och du|kän- ner en|var- sel i|
 !>!F,2 !>!F,2 !>!F,2 | G,4 G, G, |"^cresc." G,,2 G,,2 G,,2 | G,,2 G,,2 G,2 | F,2 F,3 F, | F,6 | %32
w: bä- van- de|bröst av de|djup- sta, som|sek- ler- nas|hjär- ta för-|nam,|
 E,4 E,2 | E,4 E,2 | E,6 | E,4 E,2 | B,,6 | B,,4 A,2 |!>(! (G,4 F,2 | E,2 D,2)!>)! F, F, | E,6 | %41
w: vad av|ve och|ma-|nan- de|all-|var och|tröst, _|_ _ som har|sprun-|
 E,4 E,2 | (A,4 B,2) | A,4 A,2 |!<(! B,6!<)! | A,4 B,2 |!>(! G,6- | G,2!>)! z2 z2 |] %48
w: git ur|si- *|a- re-|har-|por- na|fram.|_|
V:6
 x6 | x6 | x6 | x6 | x6 | x6 | x6 | x6 | x6 | x6 | x6 | x6 | x6 | x6 | x6 | x6 | x6 | x6 | x6 | %19
 x6 | x6 | x6 | x6 | x6 | x6 | x6 | x6 | x6 | x6 | x6 | x6 | x6 | x6 | x6 | x6 | x6 | x6 | x6 | %38
 x6 | x6 | x6 | x6 | x6 | x6 | x6 | B,,4 B,,2 | E,6- | E,2 x4 |] %48

